img/skills/sequelize.svg

<svg width="46" height="55" viewBox="0 0 46 55" fill="none" xmlns="http://www.w3.org/2000/svg">
<path d="M23 2L1 15V40.5L23 53L45 40.5V15L23 2Z" fill="#191F2E" stroke="#0388B9" stroke-width="2"/>
<path d="M32.1503 22.6119V33.3293L23.0436 38.7173L22.9618 38.7917V42.7973L23.0436 42.8748L35.869 35.4671V20.5326L35.75 20.5039L32.1375 22.5227L32.1556 22.6098" fill="#2F406A"/>
<path d="M13.9082 33.4189L23.0457 38.7187V42.8752L10.131 35.4377V20.5627L10.2638 20.5425L13.8689 22.6388L13.9082 22.7589V33.4189Z" fill="#2379BD"/>
<path d="M13.9082 22.7587L10.131 20.5625L23.0149 13.125L35.8711 20.5328L32.1524 22.6121L23.0149 17.3994L13.9082 22.7587Z" fill="#03AFEF"/>
<path d="M22.8874 32.1917L22.7886 32.0854V28.066L22.8874 28.015L22.9118 27.9162L26.3618 25.9038L26.468 25.9272V30.0709L22.8885 32.1885" fill="#2F406A"/>
<path d="M19.2483 30.2027V25.8975H19.3482L22.8544 27.9396L22.8842 28.0203V32.197L19.2451 30.208" fill="#2379BD"/>
<path d="M22.8279 23.7788L19.2483 25.8964L22.8874 28.0139L26.4669 25.9261L22.8279 23.7788Z" fill="#03AFEF"/>
<path d="M18.4312 34.8159L18.3324 34.7097V30.6913L18.4312 30.6403L18.4557 30.5415L21.9067 28.5312L22.0129 28.5546V32.6984L18.4312 34.8159Z" fill="#2F406A"/>
<path d="M14.7932 32.8278V28.5215H14.8931L18.3994 30.5636L18.4291 30.6444V34.821L14.7932 32.8278Z" fill="#2379BD"/>
<path d="M18.3728 26.4062L14.7932 28.5217L18.4312 30.6403L22.0119 28.5525L18.3728 26.4062Z" fill="#03AFEF"/>
<path d="M27.6601 34.9158L27.5613 34.8096V30.7901L27.6601 30.7391L27.6846 30.6403L31.1345 28.6279L31.2407 28.6513V32.7951L27.6612 34.9126" fill="#2F406A"/>
<path d="M24.0211 32.9268V28.6216H24.1209L27.6272 30.6637L27.6569 30.7445V34.9211L24.0179 32.9321" fill="#2379BD"/>
<path d="M27.6006 26.5039L24.0211 28.6215L27.6601 30.739L31.2397 28.6512L27.6006 26.5039Z" fill="#03AFEF"/>
<path d="M23.2051 37.541L23.1063 37.4348V33.4185L23.2051 33.3675L23.2295 33.2687L26.6794 31.2563L26.7857 31.2797V35.4235L23.2051 37.541Z" fill="#2F406A"/>
<path d="M19.566 35.5523V31.2471H19.6659L23.1721 33.2892L23.2019 33.3699V37.5413L19.5628 35.5523" fill="#2379BD"/>
<path d="M23.1456 29.1285L19.566 31.2461L23.2051 33.3636L26.7846 31.2758L23.1456 29.1285Z" fill="#03AFEF"/>
<path d="M22.8874 26.4837L22.7886 26.3774V22.358L22.8874 22.307L22.9118 22.2082L26.3618 20.1958L26.468 20.2192V24.3629L22.8885 26.4805" fill="#2F406A"/>
<path d="M19.2483 24.4936V20.1895H19.3482L22.8544 22.2316L22.8842 22.3123V26.489L19.2483 24.4936Z" fill="#2379BD"/>
<path d="M22.8279 18.0718L19.2483 20.1893L22.8874 22.3069L26.4669 20.2191L22.8279 18.0718Z" fill="#03AFEF"/>
<path d="M18.4312 29.1092L18.3324 29.0029V24.9835L18.4312 24.9325L18.4557 24.8337L21.9056 22.8213L22.0119 22.8447V26.9884L18.4312 29.1092Z" fill="#2F406A"/>
<path d="M14.7932 27.1202V22.8149H14.8931L18.3994 24.8571L18.4291 24.9378V29.1145L14.7932 27.1202Z" fill="#2379BD"/>
<path d="M18.3728 20.6963L14.7932 22.8149L18.4312 24.9325L22.0108 22.8447L18.3728 20.6963Z" fill="#03AFEF"/>
<path d="M27.6601 29.2082L27.5613 29.1019V25.0836L27.6601 25.0326L27.6846 24.9338L31.1345 22.9214L31.2407 22.9448V27.0885L27.6612 29.2061" fill="#2F406A"/>
<path d="M24.0211 27.2199V22.9136H24.1209L27.6272 24.9557L27.6569 25.0364V29.2131L24.0179 27.2241" fill="#2379BD"/>
<path d="M27.6006 20.7964L24.0211 22.9139L27.6601 25.0315L31.2397 22.9437L27.6006 20.7964Z" fill="#03AFEF"/>
<path d="M23.2051 31.8333L23.1063 31.727V27.7076L23.2051 27.6566L23.2295 27.5578L26.6794 25.5454L26.7857 25.5688V29.7125L23.2061 31.8301" fill="#2F406A"/>
<path d="M19.566 29.8443V25.5391H19.6659L23.1721 27.5812L23.2019 27.6619V31.8386L19.5628 29.8496" fill="#2379BD"/>
<path d="M23.1456 23.4215L19.566 25.539L23.2051 27.6566L26.7846 25.5688L23.1456 23.4204" fill="#03AFEF"/>
</svg>

<svg width="46" height="55" fill="none" xmlns="http://www.w3.org/2000/svg"><path d="M23 2 1 15v25.5L23 53l22-12.5V15L23 2z" fill="#191F2E" stroke="#0388B9" stroke-width="2"/><path d="M32.15 22.612v10.717l-9.106 5.388-.082.075v4.005l.082.078 12.825-7.408V20.533l-.119-.03-3.612 2.02.018.087" fill="#2F406A"/><path d="m13.908 33.419 9.138 5.3v4.156L10.13 35.438V20.563l.133-.02 3.605 2.096.04.12v10.66z" fill="#2379BD"/><path d="m13.908 22.759-3.777-2.197 12.884-7.437 12.856 7.408-3.719 2.08-9.137-5.214-9.107 5.36z" fill="#03AFEF"/><path d="m22.887 32.192-.098-.107v-4.019l.098-.051.025-.099 3.45-2.012.106.023v4.144l-3.58 2.117" fill="#2F406A"/><path d="M19.248 30.203v-4.305h.1l3.506 2.042.03.08v4.177l-3.639-1.989" fill="#2379BD"/><path d="m22.828 23.779-3.58 2.117 3.64 2.118 3.579-2.088-3.64-2.147z" fill="#03AFEF"/><path d="m18.431 34.816-.099-.106V30.69l.1-.05.024-.1 3.45-2.01.107.024v4.143l-3.582 2.118z" fill="#2F406A"/><path d="M14.793 32.828V28.52h.1l3.506 2.043.03.08v4.177l-3.636-1.993z" fill="#2379BD"/><path d="m18.373 26.406-3.58 2.116 3.638 2.118 3.58-2.088-3.638-2.146z" fill="#03AFEF"/><path d="m27.66 34.916-.099-.106v-4.02l.1-.05.024-.1 3.45-2.012.106.023v4.144l-3.58 2.118" fill="#2F406A"/><path d="M24.021 32.927v-4.305h.1l3.506 2.042.03.08v4.177l-3.64-1.989" fill="#2379BD"/><path d="m27.6 26.504-3.579 2.117 3.64 2.118 3.579-2.088-3.64-2.147z" fill="#03AFEF"/><path d="m23.205 37.541-.099-.106v-4.017l.1-.05.024-.1 3.45-2.012.106.024v4.143l-3.58 2.118z" fill="#2F406A"/><path d="M19.566 35.552v-4.305h.1l3.506 2.042.03.08v4.172l-3.64-1.989" fill="#2379BD"/><path d="m23.146 29.128-3.58 2.118 3.64 2.118 3.579-2.088-3.64-2.148z" fill="#03AFEF"/><path d="m22.887 26.484-.098-.107v-4.019l.098-.051.025-.099 3.45-2.012.106.023v4.144l-3.58 2.117" fill="#2F406A"/><path d="M19.248 24.494v-4.305h.1l3.506 2.043.03.08v4.177l-3.636-1.995z" fill="#2379BD"/><path d="m22.828 18.072-3.58 2.117 3.64 2.118 3.579-2.088-3.64-2.147z" fill="#03AFEF"/><path d="m18.431 29.11-.099-.107v-4.02l.1-.05.024-.1 3.45-2.012.106.024v4.143l-3.58 2.121z" fill="#2F406A"/><path d="M14.793 27.12v-4.305h.1l3.506 2.042.03.08v4.177l-3.636-1.994z" fill="#2379BD"/><path d="m18.373 20.696-3.58 2.119 3.638 2.117 3.58-2.087-3.638-2.149z" fill="#03AFEF"/><path d="m27.66 29.208-.099-.106v-4.018l.1-.051.024-.1 3.45-2.012.106.024v4.143l-3.58 2.118" fill="#2F406A"/><path d="M24.021 27.22v-4.306h.1l3.506 2.042.03.08v4.177l-3.64-1.989" fill="#2379BD"/><path d="m27.6 20.796-3.579 2.118 3.64 2.117 3.579-2.087-3.64-2.148z" fill="#03AFEF"/><path d="m23.205 31.833-.099-.106v-4.02l.1-.05.024-.1 3.45-2.012.106.024v4.143l-3.58 2.118" fill="#2F406A"/><path d="M19.566 29.844V25.54h.1l3.506 2.042.03.08v4.178l-3.64-1.99" fill="#2379BD"/><path d="m23.146 23.422-3.58 2.117 3.64 2.118 3.579-2.088-3.64-2.149" fill="#03AFEF"/></svg>
